assets/img/alias/fxhash.svg

<svg width="512" height="512" fill="none" xmlns="http://www.w3.org/2000/svg"><path fill="#fff" d="M0 0h512v512H0z"/><path d="M183.478 130c12.537 0 23.614 1.027 33.233 3.081 9.618 1.946 18.21 4.541 25.775 7.784l-14.103 33.405a89.82 89.82 0 0 0-18.319-4.865c-6.268-1.081-12.482-1.621-18.642-1.621-10.159 0-17.454 1.838-21.885 5.513-4.323 3.676-6.484 9.784-6.484 18.325v23.027h56.089l-5.673 35.513h-50.416V376H112.15V250.162H76v-35.513h36.15v-24.973c0-11.352 2.702-21.514 8.106-30.487 5.403-8.973 13.401-16.054 23.992-21.243 10.591-5.297 23.668-7.946 39.23-7.946Zm124.698 246h-55.441l59.007-90.486-53.496-81.73h57.387l27.559 55.135 26.585-55.135h54.469l-50.578 79.784L433 376h-58.035l-34.043-64.378L308.176 376Z" fill="#000"/></svg>

<svg width="512" height="512" viewBox="0 0 512 512" fill="none" xmlns="http://www.w3.org/2000/svg">
<rect width="512" height="512" fill="white"/>
<path d="M183.478 130C196.015 130 207.092 131.027 216.711 133.081C226.329 135.027 234.921 137.622 242.486 140.865L228.383 174.27C222.439 172 216.333 170.378 210.064 169.405C203.796 168.324 197.582 167.784 191.422 167.784C181.263 167.784 173.968 169.622 169.537 173.297C165.214 176.973 163.053 183.081 163.053 191.622V214.649H219.142L213.469 250.162H163.053V376H112.15V250.162H76V214.649H112.15V189.676C112.15 178.324 114.852 168.162 120.256 159.189C125.659 150.216 133.657 143.135 144.248 137.946C154.839 132.649 167.916 130 183.478 130Z" fill="black"/>
<path d="M308.176 376H252.735L311.742 285.514L258.246 203.784H315.633L343.192 258.919L369.777 203.784H424.246L373.668 283.568L433 376H374.965L340.922 311.622L308.176 376Z" fill="black"/>
</svg>
